X: 35765
T: Sally Gally
R: jig
M: 6/8
K: Gmajor
|:.e2 (e e)dB|~A3 AGA|B2 e d2 B|G3 GAB|
.c2 c B2 A|G2 E D2 d|DGG GAB|A3 ABd|
.d2 (e e)dB|~A3 AGA|B2 e d2 B|E3 EGA|
BAB .d2 B|A2 G B2 D|DED DBA|G3 GBd:|
|:e2 d efg|e2 d B2 e|d2 e dB(d|d2) d dBd|
e2 d efg|e2 d B2 d|GAB deB|A3 AGA|
B2 d d2 B|~A3 AGA|B2 e d2 B|E3 EGA|
BAB .d2 B|A2 G B2 D|DED DBA|G3 GBd:|

